.local/share/icons/Gruvbox-Plus-Dark/mimetypes/scalable/text-x-pascal.svg

<svg width="256" height="256" viewBox="0 0 256 256" fill="none" xmlns="http://www.w3.org/2000/svg">
<g opacity="0.4" filter="url(#filter0_f)">
<path d="M55.0839 15.5636H155.608L216.009 75.7129L216.011 224.609C216.011 233.52 208.749 240.737 199.838 240.737H55.0838C46.1734 240.737 39 233.564 39 224.654V31.6474C39 22.737 46.1734 15.5636 55.0838 15.5636H55.0839Z" fill="#282828"/>
</g>
<path d="M55.0839 15H155.608L216.009 75.1493L216.011 224.045C216.011 232.956 208.749 240.174 199.838 240.174H55.0838C46.1734 240.174 39 233 39 224.09V31.0838C39 22.1734 46.1734 15 55.0838 15H55.0839Z" fill="#ebdbb2"/>
<path opacity="0.4" d="M199.838 240.174C208.749 240.174 216.011 232.956 216.011 224.046L216.01 186.5H39V224.09C39 233 46.1734 240.174 55.0838 240.174H199.838Z" fill="url(#paint0_linear)"/>
<path fill-rule="evenodd" clip-rule="evenodd" d="M155.609 22.9787H55.0839C50.58 22.9787 46.9787 26.5799 46.9787 31.0838V224.09C46.9787 228.594 50.5799 232.195 55.0838 232.195H199.838C204.371 232.195 208.032 228.521 208.032 224.046V75.1493L155.609 22.9787ZM155.608 15H55.0839C46.1735 15 39 22.1734 39 31.0838V224.09C39 233 46.1734 240.174 55.0838 240.174H199.838C208.749 240.174 216.011 232.956 216.011 224.045L216.009 75.1493L155.608 15Z" fill="url(#paint1_linear)"/>
<path d="M74.1223 221H77.7223V213.05H82.8523C87.8923 213.05 89.9023 209.51 89.9023 206.51C89.9023 203.3 88.0723 200 82.8523 200H74.1223V221ZM83.0323 209.63H77.7223V203.42H83.0323C85.4923 203.42 86.1823 205.19 86.1823 206.51C86.1823 207.98 85.3423 209.63 83.0323 209.63ZM104.186 221H107.966L100.166 200H96.5963L88.7663 221H92.5763L94.2263 216.41H102.536L104.186 221ZM101.396 213.17H95.3662L97.7063 206.87C97.9163 206.27 98.2163 205.37 98.3963 204.74C98.5463 205.37 98.8463 206.27 99.0863 206.87L101.396 213.17ZM117.639 221.36C121.779 221.36 125.019 219.08 125.019 215.03C125.019 210.59 121.239 209.27 118.179 208.19C115.989 207.47 114.159 206.84 114.159 205.31C114.159 203.87 115.269 203.06 117.159 203.06C119.139 203.06 120.339 203.99 120.879 205.22L124.119 204.14C123.369 201.56 121.059 199.64 117.399 199.64C112.989 199.64 110.499 202.22 110.499 205.28C110.499 209.27 113.859 210.44 116.859 211.46C119.229 212.27 121.359 213.02 121.359 215.03C121.359 216.95 119.919 217.94 117.759 217.94C115.599 217.94 113.919 216.62 113.049 214.7L109.719 215.93C110.859 219.26 113.769 221.36 117.639 221.36ZM137.27 221.36C141.02 221.36 143.33 219.35 144.62 216.44L141.29 215.18C140.33 216.77 139.16 217.88 137.27 217.88C133.73 217.88 132.2 213.98 132.2 210.5C132.2 207.2 133.4 203.09 137.27 203.09C139.25 203.09 140.3 203.99 141.35 205.58L144.59 204.11C143.69 201.89 141.26 199.64 137.27 199.64C130.79 199.64 128.48 205.67 128.48 210.5C128.48 215.69 130.73 221.36 137.27 221.36ZM162.018 221H165.798L157.998 200H154.428L146.598 221H150.408L152.058 216.41H160.368L162.018 221ZM159.228 213.17H153.198L155.538 206.87C155.748 206.27 156.048 205.37 156.228 204.74C156.378 205.37 156.678 206.27 156.918 206.87L159.228 213.17ZM169.015 221H182.815V217.55H172.615V200H169.015V221Z" fill="url(#paint2_linear)"/>
<path d="M82 168H105.143V123.771H133.429C162.743 123.771 174.4 103.371 174.4 85.8857C174.4 67.2 163.771 48 133.429 48H82V168ZM134.457 101.829H105.143V69.9429H134.457C146.8 69.9429 150.4 79.0286 150.4 85.8857C150.4 93.4286 146.114 101.829 134.457 101.829Z" fill="url(#paint3_linear)"/>
<path opacity="0.25" d="M155.608 17V61.2306C155.608 70.141 162.867 77.1605 171.777 77.1605L216.009 77.1493V75.1493L155.608 17Z" fill="#282828"/>
<path d="M155.608 15V59.2306C155.608 68.141 162.867 75.1605 171.777 75.1605L216.009 75.1493L155.608 15Z" fill="url(#paint4_linear)"/>
<defs>
<filter id="filter0_f" x="23.8778" y="0.441412" width="207.255" height="255.418" filterUnits="userSpaceOnUse" color-interpolation-filters="sRGB">
<feFlood flood-opacity="0" result="BackgroundImageFix"/>
<feBlend mode="normal" in="SourceGraphic" in2="BackgroundImageFix" result="shape"/>
<feGaussianBlur stdDeviation="7.5611" result="effect1_foregroundBlur"/>
</filter>
<linearGradient id="paint0_linear" x1="39" y1="186.5" x2="39" y2="240.174" gradientUnits="userSpaceOnUse">
<stop offset="1e-07" stop-color="#b16286"/>
<stop offset="1" stop-color="#8f3f71"/>
</linearGradient>
<linearGradient id="paint1_linear" x1="39" y1="15" x2="39" y2="240.174" gradientUnits="userSpaceOnUse">
<stop offset="1e-07" stop-color="#b16286"/>
<stop offset="1" stop-color="#8f3f71"/>
</linearGradient>
<linearGradient id="paint2_linear" x1="39" y1="192" x2="39" y2="240" gradientUnits="userSpaceOnUse">
<stop offset="1e-07" stop-color="#b16286"/>
<stop offset="1" stop-color="#8f3f71"/>
</linearGradient>
<linearGradient id="paint3_linear" x1="82" y1="48" x2="82" y2="168" gradientUnits="userSpaceOnUse">
<stop offset="1e-07" stop-color="#b16286"/>
<stop offset="1" stop-color="#8f3f71"/>
</linearGradient>
<linearGradient id="paint4_linear" x1="155.608" y1="15" x2="155.608" y2="75.1605" gradientUnits="userSpaceOnUse">
<stop offset="1e-07" stop-color="#b16286"/>
<stop offset="1" stop-color="#8f3f71"/>
</linearGradient>
</defs>
</svg>

<svg width="256" height="256" fill="none" version="1.1" viewBox="0 0 256 256" xmlns="http://www.w3.org/2000/svg">
  <path d="m55.08 15h100.5l60.4 60.15 2e-3 148.9c0 8.911-7.262 16.13-16.17 16.13h-144.8c-8.91 0-16.08-7.174-16.08-16.08v-193c0-8.91 7.173-16.08 16.08-16.08h1e-4z" fill="#ebdbb2"/>
  <path d="m199.8 240.2c8.911 0 16.17-7.218 16.17-16.13l-1e-3 -37.55h-177v37.59c0 8.91 7.173 16.08 16.08 16.08h144.8z" fill="url(#paint0_linear)" opacity=".4"/>
  <path d="m155.6 22.98h-100.5c-4.504 0-8.105 3.601-8.105 8.105v193c0 4.504 3.601 8.105 8.105 8.105h144.8c4.533 0 8.194-3.674 8.194-8.149v-148.9l-52.42-52.17zm-1e-3 -7.979h-100.5c-8.91 0-16.08 7.173-16.08 16.08v193c0 8.91 7.173 16.08 16.08 16.08h144.8c8.911 0 16.17-7.218 16.17-16.13l-2e-3 -148.9-60.4-60.15z" clip-rule="evenodd" fill="url(#paint1_linear)" fill-rule="evenodd"/>
  <path d="m74.12 221h3.6v-7.95h5.13c5.04 0 7.05-3.54 7.05-6.54 0-3.21-1.83-6.51-7.05-6.51h-8.73v21zm8.91-11.37h-5.31v-6.21h5.31c2.46 0 3.15 1.77 3.15 3.09 0 1.47-0.84 3.12-3.15 3.12zm21.15 11.37h3.78l-7.8-21h-3.57l-7.83 21h3.81l1.65-4.59h8.31l1.65 4.59zm-2.79-7.83h-6.03l2.34-6.3c0.21-0.6 0.51-1.5 0.69-2.13 0.15 0.63 0.45 1.53 0.69 2.13l2.31 6.3zm16.24 8.19c4.14 0 7.38-2.28 7.38-6.33 0-4.44-3.78-5.76-6.84-6.84-2.19-0.72-4.02-1.35-4.02-2.88 0-1.44 1.11-2.25 3-2.25 1.98 0 3.18 0.93 3.72 2.16l3.24-1.08c-0.75-2.58-3.06-4.5-6.72-4.5-4.41 0-6.9 2.58-6.9 5.64 0 3.99 3.36 5.16 6.36 6.18 2.37 0.81 4.5 1.56 4.5 3.57 0 1.92-1.44 2.91-3.6 2.91s-3.84-1.32-4.71-3.24l-3.33 1.23c1.14 3.33 4.05 5.43 7.92 5.43zm19.63 0c3.75 0 6.06-2.01 7.35-4.92l-3.33-1.26c-0.96 1.59-2.13 2.7-4.02 2.7-3.54 0-5.07-3.9-5.07-7.38 0-3.3 1.2-7.41 5.07-7.41 1.98 0 3.03 0.9 4.08 2.49l3.24-1.47c-0.9-2.22-3.33-4.47-7.32-4.47-6.48 0-8.79 6.03-8.79 10.86 0 5.19 2.25 10.86 8.79 10.86zm24.75-0.36h3.78l-7.8-21h-3.57l-7.83 21h3.81l1.65-4.59h8.31l1.65 4.59zm-2.79-7.83h-6.03l2.34-6.3c0.21-0.6 0.51-1.5 0.69-2.13 0.15 0.63 0.45 1.53 0.69 2.13l2.31 6.3zm9.787 7.83h13.8v-3.45h-10.2v-17.55h-3.6v21z" fill="url(#paint2_linear)"/>
  <path d="m82 168h23.14v-44.23h28.29c29.31 0 40.97-20.4 40.97-37.89 0-18.69-10.63-37.89-40.97-37.89h-51.43v120zm52.46-66.17h-29.31v-31.89h29.31c12.34 0 15.94 9.086 15.94 15.94 0 7.543-4.286 15.94-15.94 15.94z" fill="url(#paint3_linear)"/>
  <path d="m155.6 17v44.23c0 8.91 7.259 15.93 16.17 15.93l44.23-0.0112v-2l-60.4-58.15z" fill="#282828" opacity=".25"/>
  <path d="m155.6 15v44.23c0 8.91 7.259 15.93 16.17 15.93l44.23-0.0112-60.4-60.15z" fill="url(#paint4_linear)"/>
  <defs>
    <linearGradient id="paint0_linear" x1="39" x2="39" y1="186.5" y2="240.2" gradientUnits="userSpaceOnUse">
      <stop stop-color="#b16286" offset="1e-7"/>
      <stop stop-color="#8f3f71" offset="1"/>
    </linearGradient>
    <linearGradient id="paint1_linear" x1="39" x2="39" y1="15" y2="240.2" gradientUnits="userSpaceOnUse">
      <stop stop-color="#b16286" offset="1e-7"/>
      <stop stop-color="#8f3f71" offset="1"/>
    </linearGradient>
    <linearGradient id="paint2_linear" x1="39" x2="39" y1="192" y2="240" gradientUnits="userSpaceOnUse">
      <stop stop-color="#b16286" offset="1e-7"/>
      <stop stop-color="#8f3f71" offset="1"/>
    </linearGradient>
    <linearGradient id="paint3_linear" x1="82" x2="82" y1="48" y2="168" gradientUnits="userSpaceOnUse">
      <stop stop-color="#b16286" offset="1e-7"/>
      <stop stop-color="#8f3f71" offset="1"/>
    </linearGradient>
    <linearGradient id="paint4_linear" x1="155.6" x2="155.6" y1="15" y2="75.16" gradientUnits="userSpaceOnUse">
      <stop stop-color="#b16286" offset="1e-7"/>
      <stop stop-color="#8f3f71" offset="1"/>
    </linearGradient>
  </defs>
</svg>
